Apricity Icons/16/panel/scroll-lock-off.svg

<svg xmlns="http://www.w3.org/2000/svg" width="16" height="16" version="1.1">
 <defs>
  <style id="current-color-scheme" type="text/css">
   .ColorScheme-Text { color:#dfdfdf; } .ColorScheme-Highlight { color:#4285f4; }
  </style>
 </defs>
 <path style="fill:currentColor;opacity:0.3" class="ColorScheme-Text" d="M 3.625 1 A 1.7500384 1.6924769 0 0 0 1.8847656 2.5058594 L 1.0097656 10.121094 A 1.7500384 1.6924769 0 0 0 2.75 12 L 13.25 12 A 1.7500384 1.6924769 0 0 0 14.990234 10.121094 L 14.115234 2.5058594 A 1.7500384 1.6924769 0 0 0 12.375 1 L 3.625 1 z M 7 3 L 9 3 L 9 6 L 11 6 L 8 10 L 5 6 L 7 6 L 7 3 z M 1 12.300781 L 1 12.779297 C 1 13.839797 1.908421 15 2.96875 15 L 13.03125 15 C 14.091667 15 15 13.839797 15 12.779297 L 15 12.300781 C 14.534537 12.725155 13.928072 12.998047 13.25 12.998047 L 2.75 12.998047 C 2.072278 12.998047 1.4651141 12.725155 1 12.300781 z"/>
</svg>

<svg xmlns="http://www.w3.org/2000/svg" width="16" height="16"><defs><style id="current-color-scheme" type="text/css"></style></defs><path d="M3.625 1a1.75 1.692 0 0 0-1.74 1.506L1.01 10.12A1.75 1.692 0 0 0 2.75 12h10.5a1.75 1.692 0 0 0 1.74-1.879l-.875-7.615A1.75 1.692 0 0 0 12.375 1h-8.75zM7 3h2v3h2l-3 4-3-4h2V3zm-6 9.3v.48C1 13.84 1.908 15 2.969 15H13.03C14.091 15 15 13.84 15 12.78v-.48a2.59 2.59 0 0 1-1.75.698H2.75A2.59 2.59 0 0 1 1 12.301z" fill="currentColor" opacity=".3" color="#dfdfdf"/></svg>
